X: 524
T: New Bore
P: Longways for as many as will
%R: march, reel
B: "The Dancing-Master: Containing Directions and Tunes for Dancing" printed by W. Pearson for John Walsh, London ca. 1709
S: 7: DMDfD http://digital.nls.uk/special-collections-of-printed-music/pageturner.cfm?id=89751228 p.253 "Z"
Z: 2013 John Chambers <jc:trillian.mit.edu>
M: C|
L: 1/8
K: F
% - - - - - - - - - - - - - - - - - - - - - - - - -
F2 |\
c2c2 B2A2 | d6 c2 | B2B2 A2G2 | F6 F2 | c2c2 B2A2 | d6 c2 | (de)f2 (ef)g2 | f6 |][| g2 a2f2 a2b2 |
c'6 f2 | e2(dc) d2=B2 | c6 f2 | d2B2 b2(a/g/f) | e2c2 c'2c2 | A2(GF) f2(ag) | f6 |]
% - - - - - - - - - - - - - - - - - - - - - - - - -
%%begintext align
%% The 1. man put his Partner in between the next, and the man goes between 2. cu. and set one to
%% the other, and the man cast up between the 1. and 2. cu. and turn, then lead down between the 2. cu.
%% and turn, then the half Figure with the 2. cu. and then the man turns the uppermost wo. and his
%% Partner turns the uppermost man.
%% [DMDfD]
%%endtext
%%sep 1 8 500

%%sep 1 1 500
%%sep 1 1 500
